packages/kaspersky-hexa-ui-icons/src/iconsSVGs/24/MessageSolid.svg

<svg width="24" height="24" viewBox="0 0 24 24" fill="none" xmlns="http://www.w3.org/2000/svg">
<path fill-rule="evenodd" clip-rule="evenodd" d="M2 5.74316C2 3.6721 3.67893 1.99316 5.75 1.99316H18.25C20.3211 1.99316 22 3.6721 22 5.74316V14.2478C22 16.3189 20.3211 17.9978 18.25 17.9978H8.37829C8.02763 17.9978 7.6931 18.1451 7.45631 18.4038L4.60658 21.5165C3.68248 22.5259 2.00014 21.8721 2.00021 20.5036C2.00037 17.5051 2.00026 14.5066 2.00015 11.5081C2.00007 9.58647 2 7.66482 2 5.74316ZM8 10.9999C8.55228 10.9999 9 10.5522 9 9.99991C9 9.44762 8.55228 8.99991 8 8.99991C7.44772 8.99991 7 9.44762 7 9.99991C7 10.5522 7.44772 10.9999 8 10.9999ZM13 9.99991C13 10.5522 12.5523 10.9999 12 10.9999C11.4477 10.9999 11 10.5522 11 9.99991C11 9.44762 11.4477 8.99991 12 8.99991C12.5523 8.99991 13 9.44762 13 9.99991ZM17 9.99991C17 10.5522 16.5523 10.9999 16 10.9999C15.4477 10.9999 15 10.5522 15 9.99991C15 9.44762 15.4477 8.99991 16 8.99991C16.5523 8.99991 17 9.44762 17 9.99991Z" fill="black"/>
</svg>

<svg xmlns="http://www.w3.org/2000/svg" width="24" height="24" fill="none" viewBox="0 0 24 24"><path fill="#000" fill-rule="evenodd" d="M2 5.7432c0-2.0711 1.679-3.75 3.75-3.75h12.5c2.0711 0 3.75 1.6789 3.75 3.75v8.5046c0 2.0711-1.6789 3.75-3.75 3.75H8.3783c-.3507 0-.6852.1473-.922.406l-2.8497 3.1127c-.9241 1.0094-2.6065.3556-2.6064-1.0129v-8.9955zm6 5.2567c.5523 0 1-.4477 1-1s-.4477-1-1-1-1 .4477-1 1 .4477 1 1 1m5-1c0 .5523-.4477 1-1 1s-1-.4477-1-1 .4477-1 1-1 1 .4477 1 1m4 0c0 .5523-.4477 1-1 1s-1-.4477-1-1 .4477-1 1-1 1 .4477 1 1"/></svg>
